dist/files/common/section-icon-data.svg

<svg width="96" height="96" viewBox="0 0 96 96" fill="none" xmlns="http://www.w3.org/2000/svg">
<path fill-rule="evenodd" clip-rule="evenodd" d="M51.7641 37.856C53.5761 38.72 55.4841 39.364 57.4441 39.776C63.0161 40.976 68.7481 41.244 74.4041 40.576C80.1608 39.9374 85.713 38.0685 90.6841 35.096C91.8808 34.3139 92.8842 33.2703 93.6187 32.0438C94.3532 30.8174 94.7996 29.4401 94.9241 28.016C95.0713 26.5686 94.9084 25.1066 94.4463 23.7271C93.9842 22.3477 93.2334 21.0825 92.2441 20.016C91.294 19.0577 90.184 18.2726 88.9641 17.696C88.1035 17.3689 87.2214 17.1016 86.3241 16.896C86.1391 14.1412 85.2131 11.4877 83.6441 9.21597C81.7283 6.50321 79.0777 4.39386 76.0041 3.13597C72.8126 1.86263 69.3046 1.61106 65.9641 2.41597C63.462 3.05065 61.1363 4.24422 59.1618 5.90696C57.1873 7.5697 55.6153 9.65836 54.5641 12.016C53.8521 13.736 53.5521 15.596 53.6841 17.456C52.1713 18.0925 50.8133 19.0471 49.7021 20.2549C48.5909 21.4627 47.7526 22.8955 47.2441 24.456C46.5519 26.1879 46.2816 28.0596 46.4555 29.9166C46.6294 31.7736 47.2424 33.5626 48.2441 35.136C49.1921 36.304 50.3961 37.236 51.7641 37.856ZM50.2441 25.216C50.8573 23.0318 52.2903 21.1689 54.2441 20.016C54.9294 22.2182 56.2348 24.1764 58.0041 25.656C58.2367 25.7622 58.4958 25.7963 58.748 25.7539C59.0002 25.7115 59.2339 25.5945 59.419 25.418C59.6041 25.2415 59.7321 25.0136 59.7865 24.7637C59.8408 24.5138 59.8191 24.2534 59.7241 24.016C58.3176 22.724 57.3811 21.0005 57.0625 19.1175C56.7438 17.2344 57.061 15.2988 57.9641 13.616C58.9218 11.9695 60.2266 10.5512 61.7877 9.45982C63.3488 8.36842 65.1288 7.63003 67.0041 7.29597C69.8543 6.5327 72.8814 6.78732 75.5641 8.01597C77.4081 8.97597 79.0081 10.344 80.2441 12.016C81.7982 13.9801 82.6437 16.4114 82.6437 18.916C82.6437 21.4206 81.7982 23.8518 80.2441 25.816C80.0964 25.9535 79.9793 26.1205 79.9003 26.3063C79.8213 26.492 79.7823 26.6922 79.7857 26.894C79.7891 27.0958 79.8348 27.2946 79.92 27.4775C80.0052 27.6605 80.1279 27.8235 80.2801 27.956C80.4323 28.0884 80.6107 28.1873 80.8036 28.2463C80.9965 28.3053 81.1997 28.3232 81.4 28.2987C81.6002 28.2742 81.7931 28.2078 81.9661 28.104C82.139 28.0002 82.2883 27.8612 82.4041 27.696C84.4131 25.5855 85.7135 22.9007 86.1241 20.016L86.8441 20.256C87.9641 20.756 88.9561 21.496 89.7641 22.416C90.3517 23.1116 90.7841 23.9245 91.0324 24.8005C91.2807 25.6766 91.3393 26.5955 91.2041 27.496C91.096 28.3292 90.7935 29.1254 90.321 29.8202C89.8485 30.5151 89.2193 31.0891 88.4841 31.496C83.9569 33.8887 78.9887 35.3315 73.8841 35.736C68.7176 36.3608 63.4869 36.2125 58.3641 35.296C56.7189 35.0833 55.1065 34.6668 53.5641 34.056C52.7229 33.7459 51.9684 33.2383 51.3641 32.576C50.5948 31.5318 50.0909 30.3163 49.8958 29.0342C49.7007 27.752 49.8202 26.4417 50.2441 25.216ZM95.5241 82.74C95.4019 82.4279 95.2187 82.1433 94.9851 81.903C94.7516 81.6626 94.4725 81.4712 94.1641 81.34C93.4441 81.34 83.5241 80.1 80.7641 80.02H67.4841L59.0441 80.34C56.7641 80.34 47.4041 81.26 46.3641 81.38C45.3241 81.5 44.2441 85.82 44.2441 85.86C44.0961 87.088 44.3641 88.324 45.0041 89.38C45.706 90.5948 46.7305 91.5916 47.9641 92.26C48.2841 92.54 63.9641 93.86 64.9641 93.94C68.4841 94.18 72.0841 93.94 75.6841 93.94L80.6041 93.5C84.3641 93.06 88.0841 92.54 91.8441 92.02C92.8441 92.02 92.0841 92.02 94.4841 89.42C94.8788 89.02 95.1988 88.5666 95.4441 88.06C95.6974 87.5533 95.8708 87.02 95.9641 86.46C96.0741 85.2029 95.9243 83.9367 95.5241 82.74ZM91.5241 85.38C91.2441 85.86 91.0841 86.38 90.8441 86.9C90.5508 87.6973 90.2041 88.4706 89.8041 89.22H65.2441C60.0841 89.22 55.0041 89.46 49.8041 89.62L49.4441 88.74C49.4032 88.2742 49.4032 87.8057 49.4441 87.34C49.4441 86.9 49.4441 86.46 49.2041 86.02C48.9641 85.58 48.8041 84.62 48.6441 83.94L67.8041 84.78C70.3241 84.78 72.8041 84.78 75.2441 84.58C78.9641 84.38 82.6041 84.06 86.2841 83.98H92.4441C92.0681 84.4226 91.7214 84.8893 91.4041 85.38H91.5241ZM51.7641 75.78V65.3C51.8041 64.8626 51.8841 64.436 52.0041 64.02C52.0041 64.02 52.0041 63.78 52.2041 63.7C52.6041 63.7 53.2441 63.7 53.4441 63.46C54.3054 63.1506 55.1854 62.924 56.0841 62.78C57.5641 62.5 59.1241 62.38 60.6041 62.22C65.312 61.6015 70.0557 61.2941 74.8041 61.3C77.9641 61.3026 81.1108 61.4893 84.2441 61.86C85.6441 61.86 87.2841 61.86 88.8841 62.26V73.74C88.8841 75.7 89.1241 76.26 89.2041 78.18C89.2728 78.5297 89.446 78.8503 89.7008 79.0994C89.9557 79.3485 90.2802 79.5144 90.6314 79.5751C90.9825 79.6358 91.3439 79.5885 91.6675 79.4393C91.9912 79.2902 92.262 79.0463 92.4441 78.74C92.8441 76.66 93.2041 75.94 93.4441 73.82V70.46C93.4648 69.335 93.3845 68.2105 93.2041 67.1C91.7641 56.9 90.2441 59.74 84.6041 58.5C80.4537 57.6564 76.2378 57.1745 72.0041 57.06C67.8798 56.9275 63.7512 57.0611 59.6441 57.46C58.0441 57.66 56.3641 57.78 54.7241 58.14C53.5268 58.364 52.3668 58.7106 51.2441 59.18C50.4841 59.4733 49.7641 59.8466 49.0841 60.3C48.456 60.6926 47.9773 61.2839 47.7241 61.98C47.4234 62.7996 47.2743 63.667 47.2841 64.54C47.4441 66.1106 47.6841 67.6706 48.0041 69.22C48.2041 71.54 48.4841 73.82 48.8041 76.1C48.8041 77.42 48.8041 77.42 49.2441 78.74C49.6841 80.06 52.4041 79.94 52.1641 78.74C51.9639 77.7635 51.8302 76.7746 51.7641 75.78Z" fill="#FFE1CD"/>
<path fill-rule="evenodd" clip-rule="evenodd" d="M52.0081 63.7399C51.9825 63.8315 51.9825 63.9283 52.0081 64.0199V63.7399ZM40.9601 18.2559C37.603 17.6044 34.1317 17.881 30.9201 19.0559C29.5142 19.5322 28.1711 20.1769 26.9201 20.9759C25.7006 21.8294 24.6095 22.8532 23.6801 24.0159C22.4747 25.3298 21.571 26.8912 21.032 28.5909C20.4931 30.2906 20.3321 32.0875 20.5601 33.8559C20.5651 34.0223 20.6036 34.186 20.6732 34.3372C20.7429 34.4884 20.8423 34.624 20.9654 34.736C21.0886 34.848 21.2331 34.934 21.3902 34.989C21.5474 35.044 21.714 35.0667 21.8801 35.0559C22.2055 35.0355 22.5109 34.8917 22.7339 34.6538C22.9569 34.416 23.0808 34.1019 23.0801 33.7759C23.2814 32.4727 23.7385 31.2222 24.4249 30.0964C25.1114 28.9706 26.0138 27.9916 27.0801 27.2159C27.9334 26.4826 28.8268 25.8026 29.7601 25.1759C30.7281 24.5172 31.7281 23.9172 32.7601 23.3759C35.2083 22.0132 37.9584 21.2844 40.7601 21.2559C40.9472 21.2839 41.1381 21.2737 41.3211 21.226C41.5042 21.1782 41.6757 21.0938 41.8252 20.9779C41.9747 20.862 42.0992 20.717 42.1912 20.5517C42.2831 20.3863 42.3406 20.2041 42.3601 20.0159C42.4081 19.8053 42.4081 19.5867 42.3602 19.3761C42.3122 19.1655 42.2175 18.9685 42.0831 18.7994C41.9486 18.6304 41.7779 18.4938 41.5835 18.3997C41.3891 18.3056 41.1761 18.2565 40.9601 18.2559ZM37.4001 81.0599H32.2801C31.2715 81.0179 30.2744 80.8292 29.3201 80.4999C27.765 80.1844 26.2849 79.5733 24.9601 78.6999C23.668 77.9931 22.548 77.0097 21.6801 75.8199C21.0556 74.6647 20.4948 73.4763 20.0001 72.2599C20.0001 70.7799 16.8401 71.2199 17.0401 73.5799C17.1041 75.3079 17.6401 76.9799 18.6001 78.4199C19.9321 80.4599 21.8001 82.0999 24.0001 83.1399C25.3921 83.8199 26.8761 84.2919 28.4001 84.5399C29.7321 84.6999 31.0761 84.6999 32.4001 84.5399C34.1601 84.5399 35.8801 84.0599 37.6401 83.8199C37.8309 83.8202 38.0197 83.7815 38.195 83.7062C38.3703 83.6309 38.5284 83.5206 38.6595 83.382C38.7906 83.2434 38.892 83.0794 38.9574 82.9002C39.0229 82.721 39.051 82.5303 39.0401 82.3399C39.0205 82.1465 38.962 81.959 38.8681 81.7889C38.7741 81.6187 38.6467 81.4693 38.4934 81.3497C38.3402 81.2301 38.1643 81.1428 37.9764 81.093C37.7885 81.0431 37.5925 81.0319 37.4001 81.0599Z" fill="#FFE1CD"/>
<path fill-rule="evenodd" clip-rule="evenodd" d="M23.2 69.0959C29.8 68.0159 36.48 64.8159 36.56 63.6159C36.96 60.6159 37.36 57.6959 37.52 54.7359V50.7359C37.52 49.3999 37.4267 48.0666 37.24 46.7359C37.24 45.3759 36.72 44.0559 36.44 42.7359C36.8988 41.7352 37.0917 40.633 37 39.5359C36.8839 38.5241 36.5655 37.5459 36.0639 36.6595C35.5623 35.773 34.8876 34.9965 34.08 34.3759C32.961 33.5283 31.682 32.916 30.32 32.5759C28.514 32.2187 26.6805 32.0179 24.84 31.9759C24.4641 31.9423 24.09 32.0576 23.7983 32.297C23.5065 32.5364 23.3204 32.8807 23.28 33.2559C23.2573 33.6358 23.3817 34.0098 23.6275 34.3003C23.8734 34.5908 24.2216 34.7755 24.6 34.8159C26.2453 35.0559 27.8453 35.4559 29.4 36.0159C30.36 36.2359 31.256 36.6919 32 37.3359C32.5408 37.8463 32.9287 38.4974 33.12 39.2159V41.3759C32.8807 41.8115 32.5539 42.1929 32.16 42.4959C30.7974 43.4569 29.2161 44.062 27.56 44.2559C24.744 44.6839 21.88 44.7759 19.04 44.5359C16.3413 44.477 13.6577 44.1147 11.04 43.4559C9.51752 43.1609 8.12173 42.4072 7.04 41.2959C5.84 39.8559 7.04 38.6559 8.52 37.6559C10.4332 36.353 12.5581 35.3921 14.8 34.8159H18.28C18.443 34.8325 18.6076 34.8166 18.7644 34.7691C18.9212 34.7217 19.067 34.6436 19.1935 34.5395C19.32 34.4353 19.4245 34.3072 19.5012 34.1624C19.5778 34.0176 19.625 33.8591 19.64 33.6959C19.7014 33.5112 19.7198 33.3148 19.6939 33.1219C19.6679 32.9289 19.5983 32.7444 19.4903 32.5824C19.3823 32.4204 19.2388 32.2852 19.0706 32.187C18.9025 32.0889 18.7142 32.0304 18.52 32.0159H14.52C10.3509 32.4666 6.43778 34.2478 3.36 37.0959C2.58153 38.0172 2.13127 39.1709 2.08 40.3759C1.29269 42.5888 0.690619 44.8633 0.28 47.1759C0.103139 48.5021 0.00962217 49.8381 0 51.1759C0 52.4559 0 53.7359 0.2 55.1759C0.512 57.8853 0.978667 60.5653 1.6 63.2159C1.57845 63.3215 1.57845 63.4304 1.6 63.5359C1.6 64.7359 10.8 67.936 12.96 68.5359C16.32 69.2719 19.78 69.4599 23.2 69.0959ZM4.84 45.3359C6.13991 46.458 7.63004 47.3386 9.24 47.9359C12.2719 48.809 15.4054 49.2797 18.56 49.3359C21.7857 49.5699 25.0282 49.3681 28.2 48.7359C29.7882 48.3459 31.3109 47.726 32.72 46.8959V48.6159C32.72 50.0959 32.72 51.5759 32.92 53.0559C30.4165 53.836 27.8204 54.2798 25.2 54.3759C23.0096 54.4209 20.8186 54.3274 18.64 54.0959C16.36 54.0959 14.12 53.7759 11.92 53.4159C10.2133 53.2559 8.52 52.9893 6.84 52.6159C6.14984 52.4523 5.46888 52.252 4.8 52.0159V48.0159C4.8 46.6159 4.88 46.2159 4.84 45.3359ZM13.8 64.0159C10.6521 63.676 7.54435 63.0331 4.52 62.0959C4.52 59.7359 4.52 57.2959 4.72 54.8559C5.08 54.8559 5.36 55.2559 5.72 55.4159C7.43733 56.1893 9.19733 56.8426 11 57.3759C12.5627 57.8559 14.1493 58.2293 15.76 58.4959C18.1928 58.8856 20.6625 58.993 23.12 58.8159C26.5818 58.4915 29.9562 57.5429 33.08 56.0159C33.28 58.2159 33.52 60.4159 33.64 62.6159H33.32C29.9374 63.7357 26.4028 64.3293 22.84 64.3759H18.32L13.8 64.0159Z" fill="#FFE1CD"/>
</svg>

<svg xmlns="http://www.w3.org/2000/svg" fill="none" viewBox="0 0 96 96"><path fill="#ffe1cd" fill-rule="evenodd" d="M51.764 37.856a25.3 25.3 0 0 0 5.68 1.92 51.7 51.7 0 0 0 16.96.8 40.4 40.4 0 0 0 16.28-5.48 9.44 9.44 0 0 0 4.24-7.08 10.24 10.24 0 0 0-2.68-8 11.6 11.6 0 0 0-3.28-2.32 20 20 0 0 0-2.64-.8 15.3 15.3 0 0 0-2.68-7.68 17.44 17.44 0 0 0-7.64-6.08 16.6 16.6 0 0 0-10.04-.72 17.08 17.08 0 0 0-11.4 9.6 12 12 0 0 0-.88 5.44 11.44 11.44 0 0 0-6.44 7 11.76 11.76 0 0 0 1 10.68 9.7 9.7 0 0 0 3.52 2.72m-1.52-12.64a8.8 8.8 0 0 1 4-5.2 12 12 0 0 0 3.76 5.64 1.28 1.28 0 0 0 1.72-1.64 8.6 8.6 0 0 1-1.76-10.4 13.12 13.12 0 0 1 9.04-6.32 12.68 12.68 0 0 1 8.56.72 13.7 13.7 0 0 1 4.68 4 11.12 11.12 0 0 1 0 13.8 1.44 1.44 0 1 0 2.16 1.88 14 14 0 0 0 3.72-7.68l.72.24c1.12.5 2.112 1.24 2.92 2.16a6.4 6.4 0 0 1 1.44 5.08 5.36 5.36 0 0 1-2.72 4 37.6 37.6 0 0 1-14.6 4.24 52.4 52.4 0 0 1-15.52-.44 20 20 0 0 1-4.8-1.24 5.6 5.6 0 0 1-2.2-1.48 8 8 0 0 1-1.12-7.36m45.28 57.524a2.52 2.52 0 0 0-1.36-1.4c-.72 0-10.64-1.24-13.4-1.32h-13.28l-8.44.32c-2.28 0-11.64.92-12.68 1.04s-2.12 4.44-2.12 4.48a5.5 5.5 0 0 0 .76 3.52 7.6 7.6 0 0 0 2.96 2.88c.32.28 16 1.6 17 1.68 3.52.24 7.12 0 10.72 0l4.92-.44c3.76-.44 7.48-.96 11.24-1.48 1 0 .24 0 2.64-2.6q.593-.6.96-1.36.38-.76.52-1.6a9.2 9.2 0 0 0-.44-3.72m-4 2.64c-.28.48-.44 1-.68 1.52q-.44 1.195-1.04 2.32h-24.56c-5.16 0-10.24.24-15.44.4l-.36-.88a8 8 0 0 1 0-1.4c0-.44 0-.88-.24-1.32s-.4-1.4-.56-2.08l19.16.84c2.52 0 5 0 7.44-.2 3.72-.2 7.36-.52 11.04-.6h6.16q-.564.665-1.04 1.4zm-39.76-9.6V65.3q.06-.656.24-1.28s0-.24.2-.32c.4 0 1.04 0 1.24-.24q1.291-.465 2.64-.68c1.48-.28 3.04-.4 4.52-.56 4.708-.618 9.452-.926 14.2-.92q4.74.005 9.44.56c1.4 0 3.04 0 4.64.4v11.48c0 1.96.24 2.52.32 4.44a1.76 1.76 0 0 0 3.24.56c.4-2.08.76-2.8 1-4.92v-3.36c.02-1.125-.06-2.25-.24-3.36-1.44-10.2-2.96-7.36-8.6-8.6a73 73 0 0 0-12.6-1.44 96 96 0 0 0-12.36.4c-1.6.2-3.28.32-4.92.68q-1.795.335-3.48 1.04-1.14.44-2.16 1.12a3.32 3.32 0 0 0-1.36 1.68c-.3.82-.45 1.687-.44 2.56q.24 2.355.72 4.68c.2 2.32.48 4.6.8 6.88 0 1.32 0 1.32.44 2.64s3.16 1.2 2.92 0q-.3-1.467-.4-2.96" clip-rule="evenodd"/><path fill="#ffe1cd" fill-rule="evenodd" d="M52.008 63.74a.5.5 0 0 0 0 .28zM40.96 18.256a18.8 18.8 0 0 0-10.04.8 18.4 18.4 0 0 0-4 1.92 15.6 15.6 0 0 0-3.24 3.04 12.24 12.24 0 0 0-3.12 9.84 1.24 1.24 0 0 0 1.32 1.2 1.28 1.28 0 0 0 1.2-1.28 10 10 0 0 1 4-6.56 28 28 0 0 1 2.68-2.04 31 31 0 0 1 3-1.8 16.8 16.8 0 0 1 8-2.12 1.4 1.4 0 0 0 1.6-1.24 1.44 1.44 0 0 0-1.4-1.76M37.4 81.06h-5.12a10.4 10.4 0 0 1-2.96-.56 12.4 12.4 0 0 1-4.36-1.8 10 10 0 0 1-3.28-2.88A36 36 0 0 1 20 72.26c0-1.48-3.16-1.04-2.96 1.32.064 1.728.6 3.4 1.56 4.84 1.332 2.04 3.2 3.68 5.4 4.72a15.8 15.8 0 0 0 4.4 1.4c1.332.16 2.676.16 4 0 1.76 0 3.48-.48 5.24-.72a1.4 1.4 0 0 0 1.4-1.48 1.44 1.44 0 0 0-1.64-1.28" clip-rule="evenodd"/><path fill="#ffe1cd" fill-rule="evenodd" d="M23.2 69.096c6.6-1.08 13.28-4.28 13.36-5.48.4-3 .8-5.92.96-8.88v-4q0-2.005-.28-4c0-1.36-.52-2.68-.8-4a6.4 6.4 0 0 0 .56-3.2 7.6 7.6 0 0 0-2.92-5.16 10.4 10.4 0 0 0-3.76-1.8 32 32 0 0 0-5.48-.6 1.44 1.44 0 0 0-1.56 1.28 1.48 1.48 0 0 0 1.32 1.56q2.468.36 4.8 1.2c.96.22 1.856.676 2.6 1.32a4 4 0 0 1 1.12 1.88v2.16a3.6 3.6 0 0 1-.96 1.12 10 10 0 0 1-4.6 1.76c-2.816.428-5.68.52-8.52.28a36 36 0 0 1-8-1.08 7.6 7.6 0 0 1-4-2.16c-1.2-1.44 0-2.64 1.48-3.64a20 20 0 0 1 6.28-2.84h3.48a1.24 1.24 0 0 0 1.36-1.12 1.28 1.28 0 0 0-1.12-1.68h-4a19.52 19.52 0 0 0-11.16 5.08 5.44 5.44 0 0 0-1.28 3.28 42.4 42.4 0 0 0-1.8 6.8 32 32 0 0 0-.28 4c0 1.28 0 2.56.2 4q.468 4.065 1.4 8.04a.8.8 0 0 0 0 .32c0 1.2 9.2 4.4 11.36 5 3.36.736 6.82.924 10.24.56M4.84 45.336a14.4 14.4 0 0 0 4.4 2.6 36 36 0 0 0 9.32 1.4c3.226.234 6.468.032 9.64-.6 1.588-.39 3.11-1.01 4.52-1.84v1.72c0 1.48 0 2.96.2 4.44-2.504.78-5.1 1.224-7.72 1.32a52 52 0 0 1-6.56-.28c-2.28 0-4.52-.32-6.72-.68a41 41 0 0 1-5.08-.8 20 20 0 0 1-2.04-.6v-4c0-1.4.08-1.8.04-2.68m8.96 18.68a49 49 0 0 1-9.28-1.92c0-2.36 0-4.8.2-7.24.36 0 .64.4 1 .56a41.6 41.6 0 0 0 5.28 1.96q2.345.72 4.76 1.12c2.433.39 4.903.497 7.36.32a28.8 28.8 0 0 0 9.96-2.8c.2 2.2.44 4.4.56 6.6h-.32a34.8 34.8 0 0 1-10.48 1.76h-4.52z" clip-rule="evenodd"/></svg>
